X:1
T:Lizzie Wan
M:2/2
L:1/8
K:G
 D2|
M:3/2
 G2 G2 B4- BB BA|
M:2/2
 G2G-E D2 D2| GG GA B2 AG| A6A-B|
M:3/2
 c2- A2 d6 e2|
M:2/2
 d2 B2 B2B-A| G2 E2 D2 E2| G6||
